content/consul/v1.10.x/img/consul-connect/logos/logo_lotto-nz_white-knockout.svg

<svg width="400" height="200" viewBox="0 0 400 200" fill="none" xmlns="http://www.w3.org/2000/svg">
<path d="M2.96186 0.0525708C1.03258 0.389119 -0.284236 2.22484 0.0526232 4.15234C0.389483 6.07984 2.2269 7.39544 4.15618 7.05889C6.08547 6.72235 7.40228 4.88663 7.06542 2.95912C6.72856 1.03162 4.89115 -0.283977 2.96186 0.0525708Z" transform="translate(91.6361 38.9956)" fill="white"/>
<path d="M3.55234 7.09811C5.51424 7.09811 7.10467 5.50914 7.10467 3.54905C7.10467 1.58896 5.51424 0 3.55234 0C1.59043 0 0 1.58896 0 3.54905C0 5.50914 1.59043 7.09811 3.55234 7.09811Z" transform="translate(50.1326 45.9934)" fill="white"/>
<path d="M0.430501 0.00861578C0.154889 -0.0525748 -0.0900994 0.222783 0.032395 0.498141L47.3765 126L133 22.0984L0.430501 0.00861578ZM94.5674 25.6169L101.427 26.6877C101.611 26.7183 101.703 26.9325 101.58 27.0854L97.1704 32.5314C97.0479 32.6844 96.8029 32.6538 96.7417 32.4702L94.2918 25.9534C94.2305 25.7698 94.3837 25.5863 94.5674 25.6169ZM52.2456 41.0063C57.0535 40.1802 61.6164 43.3621 62.4433 48.0738C63.2395 52.8161 59.9934 57.283 55.1549 58.1091C50.3163 58.9351 45.784 55.7532 44.9572 51.0416C44.161 46.2993 47.4377 41.8018 52.2456 41.0063ZM45.8147 59.4553L32.8303 61.6581C32.6465 61.6887 32.4934 61.5663 32.4628 61.3828L28.4817 37.9774C28.4511 37.7938 28.5736 37.6408 28.7573 37.6102L33.9021 36.723C34.0858 36.6924 34.2389 36.8147 34.2696 36.9983L37.3932 55.2637C37.4238 55.4473 37.5769 55.5697 37.7607 55.5391L44.9572 54.3153C45.1409 54.2847 45.2941 54.407 45.3247 54.5906L46.0903 59.0881C46.1209 59.2411 45.9984 59.4247 45.8147 59.4553ZM59.1359 75.426L57.7579 75.6708C57.5129 75.7014 57.2679 75.6402 57.0841 75.5178L51.0819 71.1732C50.9288 71.0509 50.6838 71.2038 50.7144 71.3874L51.5413 76.3438C51.5719 76.5274 51.4494 76.711 51.2657 76.7416L48.6933 77.1699C48.5095 77.2005 48.3258 77.0781 48.2952 76.8946L46.4271 65.8803C46.3965 65.6967 46.519 65.5131 46.7027 65.4825L48.2033 65.2378C48.4483 65.2072 48.6933 65.2684 48.9076 65.4213L54.818 69.9494C54.9711 70.0718 55.2161 69.9188 55.1855 69.7353L54.2974 64.5647C54.2668 64.3811 54.3893 64.1975 54.573 64.1669L57.1148 63.7386C57.2985 63.708 57.4822 63.8304 57.5129 64.014L59.3809 75.0283C59.4728 75.2118 59.3503 75.3954 59.1359 75.426ZM70.4666 73.4985L61.4939 75.0283C61.2796 75.0589 61.0958 74.8447 61.1571 74.6305L64.3419 66.0638C64.4338 65.8191 64.2194 65.5743 63.9744 65.6049L60.1771 66.2474C59.9627 66.278 59.7484 66.125 59.7178 65.9109L59.3503 63.7386C59.3197 63.5244 59.4728 63.3103 59.6871 63.2797L68.6292 61.7499C68.8436 61.7193 69.0273 61.9335 68.9661 62.1476L65.7812 70.8061C65.6894 71.0509 65.9037 71.2956 66.1487 71.265L69.9767 70.6225C70.191 70.5919 70.4054 70.7449 70.436 70.9591L70.8035 73.0702C70.8341 73.2537 70.681 73.4679 70.4666 73.4985ZM73.3759 42.7502L71.0791 43.148C70.8954 43.1786 70.7729 43.3315 70.8035 43.5151L72.6715 54.56C72.7022 54.7436 72.5797 54.8966 72.3959 54.9272L67.0368 55.845H66.9449L65.0769 44.4636C65.0463 44.28 64.8932 44.1576 64.7094 44.1882L62.1676 44.6165C61.9839 44.6471 61.8308 44.5248 61.8002 44.3412L61.0958 40.1496C61.0652 39.9661 61.1877 39.8131 61.3714 39.7825L63.9132 39.3542C64.0969 39.3236 64.2194 39.1706 64.1888 38.987L63.3926 34.3059C63.362 34.1224 63.4845 33.9694 63.6682 33.9388L68.6905 33.0821C68.8742 33.0515 69.0273 33.1739 69.058 33.3575L69.8542 38.0386C69.8848 38.2221 70.0379 38.3445 70.2216 38.3139L72.5184 37.9162C72.7022 37.8856 72.8553 38.008 72.8859 38.1915L73.5902 42.3831C73.6821 42.5361 73.5596 42.7196 73.3759 42.7502ZM85.5641 40.6698L83.2673 41.0675C83.0836 41.0981 82.9611 41.2511 82.9917 41.4346L84.8597 52.4795C84.8903 52.6631 84.7679 52.8161 84.5841 52.8467L79.225 53.7645H79.1331L77.2651 42.3831C77.2345 42.1995 77.0813 42.0771 76.8976 42.1077L74.4783 42.5055C74.2333 42.5361 74.019 42.2913 74.1415 42.0465L76.132 37.8244C76.3157 37.4267 76.377 36.9677 76.2851 36.5394L75.5502 32.2255C75.5195 32.0419 75.642 31.8889 75.8258 31.8583L80.848 31.0016C81.0318 30.971 81.1849 31.0934 81.2155 31.277L82.0117 35.9581C82.0424 36.1417 82.1955 36.264 82.3792 36.2334L84.676 35.8357C84.8597 35.8051 85.0128 35.9275 85.0435 36.1111L85.7478 40.3026C85.8703 40.4862 85.7478 40.6392 85.5641 40.6698ZM96.6498 51.1027C91.8419 51.9288 87.279 48.7469 86.4521 44.0352C85.6559 39.293 88.902 34.826 93.7406 34C98.5485 33.1739 103.111 36.3558 103.938 41.0675C104.734 45.8098 101.488 50.3073 96.6498 51.1027Z" fill="white"/>
</svg>

<svg xmlns="http://www.w3.org/2000/svg" width="400" height="200" fill="none" viewBox="0 0 400 200">
  <path fill="#fff" d="M94.598 39.048c-1.93.337-3.246 2.172-2.91 4.1.338 1.927 2.175 3.243 4.104 2.906s3.246-2.172 2.91-4.1c-.337-1.927-2.175-3.242-4.104-2.906M53.685 53.092a3.55 3.55 0 0 0 3.552-3.55 3.55 3.55 0 0 0-3.552-3.549 3.55 3.55 0 0 0-3.552 3.55 3.55 3.55 0 0 0 3.552 3.549"/>
  <path fill="#fff" d="M.43.009a.352.352 0 0 0-.398.49L47.377 126 133 22.098zm94.137 25.608 6.86 1.07a.245.245 0 0 1 .153.398l-4.41 5.446c-.122.153-.367.123-.428-.06l-2.45-6.518c-.061-.183.092-.367.275-.336m-42.321 15.39c4.807-.827 9.37 2.355 10.197 7.067.797 4.742-2.45 9.209-7.288 10.035-4.839.826-9.371-2.356-10.198-7.067-.796-4.743 2.48-9.24 7.289-10.036m-6.431 18.448L32.83 61.658c-.183.03-.337-.092-.367-.275l-3.981-23.406c-.03-.183.092-.336.275-.367l5.145-.887c.184-.03.337.092.368.275l3.123 18.266c.03.183.184.306.368.275l7.196-1.224c.184-.03.337.092.368.276l.765 4.497c.03.153-.092.337-.275.367m13.32 15.971-1.377.245c-.245.03-.49-.03-.674-.153l-6.002-4.345c-.153-.122-.398.03-.368.214l.827 4.957a.346.346 0 0 1-.275.398l-2.573.428a.346.346 0 0 1-.398-.275L46.427 65.88a.346.346 0 0 1 .276-.397l1.5-.245c.245-.03.49.03.705.183l5.91 4.528c.153.123.398-.03.367-.214l-.888-5.17a.346.346 0 0 1 .276-.398l2.542-.428a.346.346 0 0 1 .398.275l1.868 11.014c.092.184-.03.367-.245.398m11.332-1.927-8.973 1.53c-.214.03-.398-.184-.337-.398l3.185-8.567c.092-.245-.123-.49-.368-.46l-3.797.643a.41.41 0 0 1-.46-.336l-.367-2.172a.41.41 0 0 1 .337-.46l8.942-1.53c.215-.03.398.184.337.399l-3.185 8.658c-.092.245.123.49.368.459l3.828-.642a.41.41 0 0 1 .459.336l.367 2.111c.031.184-.122.398-.336.429m2.909-30.749-2.297.398c-.184.03-.306.183-.275.367L72.67 54.56c.031.184-.091.337-.275.367l-5.36.918h-.091l-1.868-11.381c-.03-.184-.184-.306-.368-.276l-2.541.428c-.184.031-.337-.091-.368-.275l-.704-4.191c-.03-.184.092-.337.275-.367l2.542-.429c.184-.03.306-.183.276-.367l-.796-4.681c-.031-.184.091-.337.275-.367l5.023-.857c.183-.03.336.092.367.276l.796 4.68c.03.184.184.306.368.276l2.296-.398c.184-.03.337.092.368.276l.704 4.191c.092.153-.03.337-.214.367m12.188-2.08-2.297.398c-.183.03-.306.183-.275.367L84.86 52.48c.03.183-.092.336-.276.367l-5.359.917h-.092l-1.868-11.38c-.03-.184-.184-.307-.367-.276l-2.42.398c-.245.03-.459-.215-.337-.46l1.991-4.222c.184-.397.245-.856.153-1.285l-.735-4.314c-.03-.183.092-.336.276-.367l5.022-.856c.184-.031.337.091.368.275l.796 4.681c.03.184.183.306.367.275l2.297-.397c.184-.03.337.092.367.275l.705 4.192c.122.183 0 .336-.184.367M96.65 51.103c-4.808.826-9.371-2.356-10.198-7.068-.796-4.742 2.45-9.209 7.289-10.035 4.808-.826 9.37 2.356 10.197 7.068.796 4.742-2.45 9.24-7.288 10.035"/>
</svg>
